blockchains/ethereum/assets/0x439ad7Ac2b7D92a24C25537CF1AA243f365D0CB0/logo.svg

<svg fill="none" height="250" viewBox="0 0 250 250" width="250" xmlns="http://www.w3.org/2000/svg" xmlns:xlink="http://www.w3.org/1999/xlink"><clipPath id="a"><path d="m0 0h250v250h-250z"/></clipPath><g clip-path="url(#a)"><path d="m125 250c69.036 0 125-55.964 125-125 0-69.0356-55.964-125-125-125-69.0356 0-125 55.9644-125 125 0 69.036 55.9644 125 125 125z" fill="#000"/><g fill="#fff"><path d="m216.742 105.77c-1.235-6.002-3.062-11.8665-5.453-17.5082-2.356-5.557-5.239-10.8755-8.609-15.8828-3.342-4.947-7.154-9.5596-11.383-13.7735-4.216-4.2294-8.832-8.0413-13.781-11.3828-5.015-3.3533-10.329-6.2353-15.875-8.6094-11.469-4.8643-23.8-7.3711-36.258-7.3711s-24.789 2.5068-36.2579 7.3711c-11.0903 4.6779-21.1632 11.471-29.6563 20-4.2286 4.2114-8.0405 8.8214-11.3828 13.7657-3.3537 5.0173-6.2358 10.3342-8.6094 15.8828-4.8643 11.4691-7.3711 23.8002-7.3711 36.2582s2.5068 24.788 7.3711 36.257c2.2969 5.547 5.2657 10.805 8.6094 15.875 3.3421 4.95 7.154 9.565 11.3828 13.782 4.2163 4.229 8.8315 8.041 13.7813 11.382 4.9687 3.344 10.3281 6.219 15.875 8.61 11.4689 4.864 23.7999 7.371 36.2579 7.371s24.789-2.507 36.258-7.371c5.547-2.297 10.804-5.266 15.875-8.61 4.949-3.341 9.565-7.153 13.781-11.382 4.229-4.217 8.041-8.832 11.383-13.782 3.344-4.968 6.218-10.328 8.609-15.875 7.36-17.357 9.262-36.543 5.453-55.007zm-91.273 100.351c-45.0549 0-81.5002-36.547-81.5002-81.508 0-44.9606 36.5469-81.5075 81.5002-81.5075 44.961 0 81.508 36.5469 81.508 81.5075 0 44.961-36.539 81.508-81.508 81.508z"/><path d="m126.914 199.047h2.203c.383 0 .758 0 1.141-.102h.101c.383 0 .664 0 1.047-.093h.289c.289 0 .578 0 .86-.094h.289c.289 0 .578-.094.961-.094h.187c.383 0 .766-.102 1.149-.102.382 0 .672-.093 1.054-.187h.188c.289 0 .578-.094.859-.094h.195c.383-.101.672-.101 1.055-.195.758-.094 1.524-.289 2.196-.477h.195c.281-.093.664-.093.953-.195h.094c.765-.187 1.437-.383 2.203-.57-7.166.227-14.331-.448-21.328-2.008-10.532-2.297-20.571-6.406-29.0862-13.492-6.7134-5.587-12.1012-12.596-15.7736-20.521-3.6724-7.924-5.5376-16.566-5.4608-25.3.0689-13.029 4.7051-25.622 13.1015-35.5855 10.9063-12.9141 26.4061-19.7109 42.2811-20.0937h2.203v-12.7188h-2.484c-4.83.0885-9.638.6643-14.352 1.7188-4.743 1.0726-9.36 2.6438-13.7731 4.6874-4.5 2.1094-8.7109 4.6876-12.6328 7.6563-4.0527 3.0807-7.7429 6.6111-11 10.5234-3.0667 3.6209-5.7283 7.5662-7.9375 11.7661-2.1855 4.048-3.95 8.31-5.2656 12.718-1.2906 4.341-2.154 8.797-2.5781 13.305l-.2891 4.203v2.484c.0938 4.883.6719 9.665 1.7188 14.352 1.0546 4.789 2.6796 9.375 4.6875 13.781 2.3984 5.258 6.7031 13.008 13.1093 18.844 13.0805 10.312 29.2576 15.908 45.9146 15.883z"/><path d="m147.766 186.797c-4.719-.169-9.419-.68-14.063-1.531-19.703-3.539-36.6405-15.594-42.8515-33.766-7.5625-22.102 4.0156-46.016 26.0155-53.2812 4.193-1.405 8.586-2.1175 13.008-2.1094 5.648 0 11.289 1.1485 16.461 3.25l5.351-11.3828c-1.609-.6453-3.234-1.2496-4.875-1.8125-5.481-1.7203-11.192-2.5923-16.937-2.5859-5.755.0107-11.472.9472-16.93 2.7734-6.966 2.2976-13.3812 6.0107-18.8435 10.9063-2.6343 2.3466-5.0361 4.9421-7.1718 7.7501-2.1114 2.776-3.9383 5.757-5.4532 8.898-3.0847 6.316-4.9053 13.174-5.3593 20.188-.4766 7.265.4765 14.531 2.8671 21.422 2.4359 7.088 6.3505 13.578 11.4844 19.039 4.6875 5.07 10.1403 8.898 16.7343 12.437 6.891 3.633 15.406 5.547 24.297 6.797 5.742.758 13.398.953 17.891.953 3.921-1.437 5.546-2.109 7.656-2.969 1.82-.859 3.633-1.718 5.453-2.773s2.109-1.25 5.164-3.25c.272-.169.528-.363.766-.578-10.524 1.82-13.203 1.719-20.664 1.625z"/><path d="m171.305 172.543c-2.969.188-7.18.469-11.961.469-8.516 0-18.946-.758-27.836-3.727-13.781-4.586-26.789-16.351-26.789-30.898-.003-3.443.673-6.853 1.989-10.034 1.316-3.182 3.246-6.072 5.681-8.507 2.434-2.434 5.325-4.365 8.507-5.681 3.181-1.316 6.591-1.992 10.034-1.989 9.851 0 18.367 5.453 22.867 13.391l11.383-5.641c-1.785-3.36-4.078-6.425-6.797-9.086-3.604-3.61-7.884-6.473-12.595-8.427s-9.762-2.9599-14.862-2.9599c-5.101 0-10.151 1.0059-14.862 2.9599-4.712 1.954-8.992 4.817-12.595 8.427-3.6087 3.603-6.4714 7.883-8.4246 12.593-1.9531 4.711-2.9585 9.761-2.9585 14.86.0255 5.345 1.1699 10.625 3.3594 15.5 2 4.399 4.7817 8.516 8.3207 12.344 6.218 6.687 14.726 12.047 23.82 15.109 8.703 2.867 21.523 3.922 33.961 3.063 3.437-.289 6.023-.578 10.422-1.532 4.244-3.349 8.097-7.168 11.484-11.382-2.969.289-8.422.859-12.148 1.148z"/></g></g></svg>

<svg width="250" height="250" viewBox="0 0 250 250" fill="none" xmlns="http://www.w3.org/2000/svg">
<g clip-path="url(#clip0_48_13014)">
<path d="M125 250C194.036 250 250 194.036 250 125C250 55.9644 194.036 0 125 0C55.9644 0 0 55.9644 0 125C0 194.036 55.9644 250 125 250Z" fill="black"/>
<path d="M216.742 105.77C215.507 99.768 213.68 93.9035 211.289 88.2618C208.933 82.7048 206.05 77.3863 202.68 72.379C199.338 67.432 195.526 62.8194 191.297 58.6055C187.081 54.3761 182.465 50.5642 177.516 47.2227C172.501 43.8694 167.187 40.9874 161.641 38.6133C150.172 33.749 137.841 31.2422 125.383 31.2422C112.925 31.2422 100.594 33.749 89.1251 38.6133C78.0348 43.2912 67.9619 50.0843 59.4688 58.6133C55.2402 62.8247 51.4283 67.4347 48.086 72.379C44.7323 77.3963 41.8502 82.7132 39.4766 88.2618C34.6123 99.7309 32.1055 112.062 32.1055 124.52C32.1055 136.978 34.6123 149.308 39.4766 160.777C41.7735 166.324 44.7423 171.582 48.086 176.652C51.4281 181.602 55.24 186.217 59.4688 190.434C63.6851 194.663 68.3003 198.475 73.2501 201.816C78.2188 205.16 83.5782 208.035 89.1251 210.426C100.594 215.29 112.925 217.797 125.383 217.797C137.841 217.797 150.172 215.29 161.641 210.426C167.188 208.129 172.445 205.16 177.516 201.816C182.465 198.475 187.081 194.663 191.297 190.434C195.526 186.217 199.338 181.602 202.68 176.652C206.024 171.684 208.898 166.324 211.289 160.777C218.649 143.42 220.551 124.234 216.742 105.77ZM125.469 206.121C80.4141 206.121 43.9688 169.574 43.9688 124.613C43.9688 79.6524 80.5157 43.1055 125.469 43.1055C170.43 43.1055 206.977 79.6524 206.977 124.613C206.977 169.574 170.438 206.121 125.469 206.121Z" fill="white"/>
<path d="M126.914 199.047H129.117C129.5 199.047 129.875 199.047 130.258 198.945H130.359C130.742 198.945 131.023 198.945 131.406 198.852H131.695C131.984 198.852 132.273 198.852 132.555 198.758H132.844C133.133 198.758 133.422 198.664 133.805 198.664H133.992C134.375 198.664 134.758 198.562 135.141 198.562C135.523 198.562 135.813 198.469 136.195 198.375H136.383C136.672 198.375 136.961 198.281 137.242 198.281H137.437C137.82 198.18 138.109 198.18 138.492 198.086C139.25 197.992 140.016 197.797 140.688 197.609H140.883C141.164 197.516 141.547 197.516 141.836 197.414H141.93C142.695 197.227 143.367 197.031 144.133 196.844C136.967 197.071 129.802 196.396 122.805 194.836C112.273 192.539 102.234 188.43 93.7188 181.344C87.0054 175.757 81.6176 168.748 77.9452 160.823C74.2728 152.899 72.4076 144.257 72.4844 135.523C72.5533 122.494 77.1895 109.901 85.5859 99.9375C96.4922 87.0234 111.992 80.2266 127.867 79.8438H130.07V67.125H127.586C122.756 67.2135 117.948 67.7893 113.234 68.8438C108.491 69.9164 103.874 71.4876 99.4609 73.5312C94.9609 75.6406 90.75 78.2188 86.8281 81.1875C82.7754 84.2682 79.0852 87.7986 75.8281 91.7109C72.7614 95.3318 70.0998 99.2771 67.8906 103.477C65.7051 107.525 63.9406 111.787 62.625 116.195C61.3344 120.536 60.471 124.992 60.0469 129.5L59.7578 133.703V136.187C59.8516 141.07 60.4297 145.852 61.4766 150.539C62.5312 155.328 64.1562 159.914 66.1641 164.32C68.5625 169.578 72.8672 177.328 79.2734 183.164C92.3539 193.476 108.531 199.072 125.188 199.047H126.914Z" fill="white"/>
<path d="M147.766 186.797C143.047 186.628 138.347 186.117 133.703 185.266C114 181.727 97.0625 169.672 90.8515 151.5C83.289 129.398 94.8671 105.484 116.867 98.2188C121.06 96.8138 125.453 96.1013 129.875 96.1094C135.523 96.1094 141.164 97.2579 146.336 99.3594L151.687 87.9766C150.078 87.3313 148.453 86.727 146.812 86.1641C141.331 84.4438 135.62 83.5718 129.875 83.5782C124.12 83.5889 118.403 84.5254 112.945 86.3516C105.979 88.6492 99.5638 92.3623 94.1015 97.2579C91.4672 99.6045 89.0654 102.2 86.9297 105.008C84.8183 107.784 82.9914 110.765 81.4765 113.906C78.3918 120.222 76.5712 127.08 76.1172 134.094C75.6406 141.359 76.5937 148.625 78.9843 155.516C81.4202 162.604 85.3348 169.094 90.4687 174.555C95.1562 179.625 100.609 183.453 107.203 186.992C114.094 190.625 122.609 192.539 131.5 193.789C137.242 194.547 144.898 194.742 149.391 194.742C153.312 193.305 154.937 192.633 157.047 191.773C158.867 190.914 160.68 190.055 162.5 189C164.32 187.945 164.609 187.75 167.664 185.75C167.936 185.581 168.192 185.387 168.43 185.172C157.906 186.992 155.227 186.891 147.766 186.797Z" fill="white"/>
<path d="M171.305 172.543C168.336 172.731 164.125 173.012 159.344 173.012C150.828 173.012 140.398 172.254 131.508 169.285C117.727 164.699 104.719 152.934 104.719 138.387C104.716 134.944 105.392 131.534 106.708 128.353C108.024 125.171 109.954 122.281 112.389 119.846C114.823 117.412 117.714 115.481 120.896 114.165C124.077 112.849 127.487 112.173 130.93 112.176C140.781 112.176 149.297 117.629 153.797 125.567L165.18 119.926C163.395 116.566 161.102 113.501 158.383 110.84C154.779 107.23 150.499 104.367 145.788 102.413C141.077 100.459 136.026 99.4531 130.926 99.4531C125.825 99.4531 120.775 100.459 116.064 102.413C111.352 104.367 107.072 107.23 103.469 110.84C99.8603 114.443 96.9976 118.723 95.0444 123.433C93.0913 128.144 92.0859 133.194 92.0859 138.293C92.1114 143.638 93.2558 148.918 95.4453 153.793C97.4453 158.192 100.227 162.309 103.766 166.137C109.984 172.824 118.492 178.184 127.586 181.246C136.289 184.113 149.109 185.168 161.547 184.309C164.984 184.02 167.57 183.731 171.969 182.777C176.213 179.428 180.066 175.609 183.453 171.395C180.484 171.684 175.031 172.254 171.305 172.543Z" fill="white"/>
</g>
<defs>
<clipPath id="clip0_48_13014">
<rect width="250" height="250" fill="white"/>
</clipPath>
</defs>
</svg>
